src/shared/assets/arrow_icon.svg

<svg width="24" height="24" viewBox="0 0 24 24" fill="none" xmlns="http://www.w3.org/2000/svg">
<path fill-rule="evenodd" clip-rule="evenodd" d="M4 12C4 11.8527 4.0602 11.7114 4.16736 11.6072C4.27451 11.503 4.41985 11.4445 4.57139 11.4445H18.0482L14.4519 7.94946C14.3446 7.84515 14.2843 7.70369 14.2843 7.55618C14.2843 7.40867 14.3446 7.2672 14.4519 7.1629C14.5592 7.0586 14.7047 7 14.8565 7C15.0082 7 15.1537 7.0586 15.261 7.1629L19.8321 11.6067C19.8853 11.6583 19.9276 11.7196 19.9564 11.7871C19.9852 11.8546 20 11.9269 20 12C20 12.0731 19.9852 12.1454 19.9564 12.2129C19.9276 12.2804 19.8853 12.3417 19.8321 12.3933L15.261 16.8371C15.1537 16.9414 15.0082 17 14.8565 17C14.7047 17 14.5592 16.9414 14.4519 16.8371C14.3446 16.7328 14.2843 16.5913 14.2843 16.4438C14.2843 16.2963 14.3446 16.1548 14.4519 16.0505L18.0482 12.5555H4.57139C4.41985 12.5555 4.27451 12.497 4.16736 12.3928C4.0602 12.2886 4 12.1473 4 12Z" fill="currentColor"/>
</svg>

<svg width="24" height="24" fill="none" xmlns="http://www.w3.org/2000/svg"><path fill-rule="evenodd" clip-rule="evenodd" d="M4 12c0-.147.06-.289.167-.393a.58.58 0 0 1 .404-.162h13.477l-3.596-3.496a.548.548 0 0 1 0-.786.58.58 0 0 1 .809 0l4.571 4.444A.555.555 0 0 1 20 12a.542.542 0 0 1-.168.393l-4.571 4.444a.58.58 0 0 1-.81 0 .548.548 0 0 1 0-.787l3.597-3.495H4.571a.58.58 0 0 1-.404-.162A.548.548 0 0 1 4 12Z" fill="currentColor"/></svg>
